packages/assets/static/images/icons/home.svg

<svg width="24" height="24" viewBox="0 0 24 24" xmlns="http://www.w3.org/2000/svg">
<g clip-path="url(#clip0_2001_46272)">
<path d="M23 19.125H21.875V13.5C22.1153 13.5845 22.3771 13.5849 22.6176 13.5012C22.8582 13.4175 23.0632 13.2547 23.1992 13.0393C23.3352 12.824 23.394 12.5689 23.3662 12.3157C23.3384 12.0625 23.2255 11.8263 23.0459 11.6457L13.8256 2.42349C13.474 2.07198 12.9972 1.87451 12.5 1.87451C12.0028 1.87451 11.526 2.07198 11.1744 2.42349L1.95406 11.6438C1.77345 11.8242 1.65958 12.0607 1.63116 12.3144C1.60274 12.5681 1.66146 12.824 1.79766 13.0399C1.93387 13.2558 2.13947 13.419 2.38068 13.5026C2.62189 13.5862 2.88437 13.5853 3.125 13.5V19.125H2C1.70163 19.125 1.41548 19.2436 1.2045 19.4546C0.993526 19.6655 0.875 19.9517 0.875 20.25C0.875 20.5484 0.993526 20.8346 1.2045 21.0455C1.41548 21.2565 1.70163 21.375 2 21.375H23C23.2984 21.375 23.5845 21.2565 23.7955 21.0455C24.0065 20.8346 24.125 20.5484 24.125 20.25C24.125 19.9517 24.0065 19.6655 23.7955 19.4546C23.5845 19.2436 23.2984 19.125 23 19.125ZM5.375 11.4047L12.5 4.27974L19.625 11.4047V19.125H15.875V14.25C15.875 13.9517 15.7565 13.6655 15.5455 13.4546C15.3345 13.2436 15.0484 13.125 14.75 13.125H10.25C9.95163 13.125 9.66548 13.2436 9.4545 13.4546C9.24353 13.6655 9.125 13.9517 9.125 14.25V19.125H5.375V11.4047ZM13.625 19.125H11.375V15.375H13.625V19.125Z"/>
</g>
<defs>
<clipPath id="clip0_2001_46272">
<rect width="24" height="24"/>
</clipPath>
</defs>
</svg>

<svg viewBox="0 0 24 24" xmlns="http://www.w3.org/2000/svg" aria-hidden="true" fill="currentColor" height="24px" width="24px"><g clip-path="url(#a)"><path d="M23 19.125h-1.125V13.5a1.124 1.124 0 0 0 1.17-1.854l-9.22-9.223a1.875 1.875 0 0 0-2.65 0l-9.22 9.22a1.125 1.125 0 0 0 1.17 1.857v5.625H2a1.125 1.125 0 0 0 0 2.25h21a1.125 1.125 0 1 0 0-2.25m-17.625-7.72L12.5 4.28l7.125 7.125v7.72h-3.75V14.25a1.125 1.125 0 0 0-1.125-1.125h-4.5a1.125 1.125 0 0 0-1.125 1.125v4.875h-3.75zm8.25 7.72h-2.25v-3.75h2.25z"/></g><defs><clipPath id="a"><path d="M0 0h24v24H0z"/></clipPath></defs></svg>
